X: 20602
M: C|
L: 1/8
K: Bb
fe |\
decd BcAB | GBAG F2DF | B2FA d2Bd | fdef c2fe |\
decd BcAB | GABG F2DF | Bgfe dcBA | B2B2 B2 :|
|: dB |\
dBF2 fgga | bagf agf=e | f2f2 f2 :|


